boxicons/svg/regular/bx-file.svg

<svg xmlns="http://www.w3.org/2000/svg" width="24" height="24" viewBox="0 0 24 24"><path d="M19.903 8.586a.997.997 0 0 0-.196-.293l-6-6a.997.997 0 0 0-.293-.196c-.03-.014-.062-.022-.094-.033a.991.991 0 0 0-.259-.051C13.04 2.011 13.021 2 13 2H6c-1.103 0-2 .897-2 2v16c0 1.103.897 2 2 2h12c1.103 0 2-.897 2-2V9c0-.021-.011-.04-.013-.062a.952.952 0 0 0-.051-.259c-.01-.032-.019-.063-.033-.093zM16.586 8H14V5.414L16.586 8zM6 20V4h6v5a1 1 0 0 0 1 1h5l.002 10H6z"/><path d="M8 12h8v2H8zm0 4h8v2H8zm0-8h2v2H8z"/></svg>

<svg xmlns="http://www.w3.org/2000/svg" width="24" height="24" viewBox="0 0 24 24"><path d="M19.903,8.586c-0.049-0.106-0.11-0.207-0.196-0.293l-6-6c-0.086-0.086-0.187-0.147-0.293-0.196 c-0.03-0.014-0.062-0.022-0.094-0.033c-0.084-0.028-0.17-0.046-0.259-0.051C13.04,2.011,13.021,2,13,2H6C4.897,2,4,2.897,4,4v16 c0,1.103,0.897,2,2,2h12c1.103,0,2-0.897,2-2V9c0-0.021-0.011-0.04-0.013-0.062c-0.005-0.089-0.022-0.175-0.051-0.259 C19.926,8.647,19.917,8.616,19.903,8.586z M16.586,8H14V5.414L16.586,8z M6,20V4h6v5c0,0.553,0.447,1,1,1h5l0.002,10H6z"/><path d="M8 12H16V14H8zM8 16H16V18H8zM8 8H10V10H8z"/></svg>
